assets/images/stars.svg

<svg fill="none" height="20" viewBox="0 0 116 20" width="116" xmlns="http://www.w3.org/2000/svg" xmlns:xlink="http://www.w3.org/1999/xlink"><clipPath id="a"><path d="m0 0h116v20h-116z"/></clipPath><mask id="b" height="20" maskUnits="userSpaceOnUse" width="116" x="0" y="0"><path d="m116 .5h-116v18.8889h116z" fill="#fff"/></mask><g clip-path="url(#a)"><g fill="#ffc266" mask="url(#b)"><path d="m9.07088 1.11234c.34374-.816455 1.51452-.816454 1.85822.00001l2.0288 4.81888c.145.3442.4727.57938.8488.60917l5.266.41708c.8922.07066 1.254 1.17065.5742 1.74592l-4.0121 3.3953c-.2866.2425-.4118.6231-.3242.9856l1.2257 5.0767c.2077.8601-.7394 1.54-1.5033 1.0791l-4.5085-2.7205c-.322-.1944-.727-.1944-1.04902 0l-4.50849 2.7205c-.76388.4609-1.71103-.219-1.50336-1.0791l1.22579-5.0767c.08756-.3625-.0376-.7431-.32416-.9856l-4.012198-3.3953c-.67978-.57527-.317994-1.67526.574229-1.74592l5.266069-.41708c.37614-.02979.7038-.26497.84871-.60917z"/><path d="m33.0709 1.11234c.3437-.816455 1.5145-.816454 1.8582.00001l2.0288 4.81888c.145.3442.4727.57938.8488.60917l5.266.41708c.8922.07066 1.254 1.17065.5742 1.74592l-4.0121 3.3953c-.2866.2425-.4118.6231-.3242.9856l1.2257 5.0767c.2077.8601-.7394 1.54-1.5033 1.0791l-4.5085-2.7205c-.322-.1944-.727-.1944-1.049 0l-4.5085 2.7205c-.7639.4609-1.711-.219-1.5034-1.0791l1.2258-5.0767c.0876-.3625-.0376-.7431-.3241-.9856l-4.0122-3.3953c-.6798-.57527-.318-1.67526.5742-1.74592l5.2661-.41708c.3761-.02979.7038-.26497.8487-.60917z"/><path d="m57.0709 1.11234c.3437-.816455 1.5145-.816454 1.8582.00001l2.0288 4.81888c.145.3442.4727.57938.8488.60917l5.266.41708c.8922.07066 1.254 1.17065.5742 1.74592l-4.0121 3.3953c-.2866.2425-.4118.6231-.3242.9856l1.2257 5.0767c.2077.8601-.7394 1.54-1.5033 1.0791l-4.5085-2.7205c-.322-.1944-.727-.1944-1.049 0l-4.5085 2.7205c-.7639.4609-1.711-.219-1.5034-1.0791l1.2258-5.0767c.0876-.3625-.0376-.7431-.3241-.9856l-4.0122-3.3953c-.6798-.57527-.318-1.67526.5742-1.74592l5.2661-.41708c.3761-.02979.7038-.26497.8487-.60917z"/><path d="m81.0709 1.11234c.3437-.816455 1.5145-.816454 1.8582.00001l2.0288 4.81888c.145.3442.4727.57938.8488.60917l5.266.41708c.8922.07066 1.254 1.17065.5742 1.74592l-4.0121 3.3953c-.2866.2425-.4118.6231-.3242.9856l1.2257 5.0767c.2077.8601-.7394 1.54-1.5033 1.0791l-4.5085-2.7205c-.322-.1944-.727-.1944-1.049 0l-4.5085 2.7205c-.7639.4609-1.711-.219-1.5034-1.0791l1.2258-5.0767c.0876-.3625-.0376-.7431-.3241-.9856l-4.0122-3.3953c-.6798-.57527-.318-1.67526.5742-1.74592l5.2661-.41708c.3761-.02979.7038-.26497.8487-.60917z"/><path d="m105.071 1.11234c.344-.816455 1.514-.816454 1.858.00001l2.029 4.81888c.145.3442.473.57938.849.60917l5.266.41708c.892.07066 1.254 1.17065.574 1.74592l-4.012 3.3953c-.287.2425-.412.6231-.324.9856l1.225 5.0767c.208.8601-.739 1.54-1.503 1.0791l-4.508-2.7205c-.323-.1944-.728-.1944-1.05 0l-4.508 2.7205c-.764.4609-1.711-.219-1.5034-1.0791l1.2254-5.0767c.088-.3625-.037-.7431-.324-.9856l-4.0119-3.3953c-.6798-.57527-.318-1.67526.5742-1.74592l5.2657-.41708c.376-.02979.704-.26497.849-.60917z"/></g></g></svg>

<svg width="116" height="20" viewBox="0 0 116 20" fill="none" xmlns="http://www.w3.org/2000/svg">
<g clip-path="url(#clip0_16_45)">
<mask id="mask0_16_45" style="mask-type:luminance" maskUnits="userSpaceOnUse" x="0" y="0" width="116" height="20">
<path d="M116 0.5H0V19.3889H116V0.5Z" fill="white"/>
</mask>
<g mask="url(#mask0_16_45)">
<path d="M9.07088 1.11234C9.41462 0.295885 10.5854 0.295886 10.9291 1.11235L12.9579 5.93123C13.1029 6.27543 13.4306 6.51061 13.8067 6.5404L19.0727 6.95748C19.9649 7.02814 20.3267 8.12813 19.6469 8.7034L15.6348 12.0987C15.3482 12.3412 15.223 12.7218 15.3106 13.0843L16.5363 18.161C16.744 19.0211 15.7969 19.701 15.033 19.2401L10.5245 16.5196C10.2025 16.3252 9.7975 16.3252 9.47548 16.5196L4.96699 19.2401C4.20311 19.701 3.25596 19.0211 3.46363 18.161L4.68942 13.0843C4.77698 12.7218 4.65182 12.3412 4.36526 12.0987L0.353062 8.7034C-0.326718 8.12813 0.035068 7.02814 0.927291 6.95748L6.19336 6.5404C6.5695 6.51061 6.89716 6.27543 7.04207 5.93123L9.07088 1.11234Z" fill="#FFC266"/>
<path d="M33.0709 1.11234C33.4146 0.295885 34.5854 0.295886 34.9291 1.11235L36.9579 5.93123C37.1029 6.27543 37.4306 6.51061 37.8067 6.5404L43.0727 6.95748C43.9649 7.02814 44.3267 8.12813 43.6469 8.7034L39.6348 12.0987C39.3482 12.3412 39.223 12.7218 39.3106 13.0843L40.5363 18.161C40.744 19.0211 39.7969 19.701 39.033 19.2401L34.5245 16.5196C34.2025 16.3252 33.7975 16.3252 33.4755 16.5196L28.967 19.2401C28.2031 19.701 27.256 19.0211 27.4636 18.161L28.6894 13.0843C28.777 12.7218 28.6518 12.3412 28.3653 12.0987L24.3531 8.7034C23.6733 8.12813 24.0351 7.02814 24.9273 6.95748L30.1934 6.5404C30.5695 6.51061 30.8972 6.27543 31.0421 5.93123L33.0709 1.11234Z" fill="#FFC266"/>
<path d="M57.0709 1.11234C57.4146 0.295885 58.5854 0.295886 58.9291 1.11235L60.9579 5.93123C61.1029 6.27543 61.4306 6.51061 61.8067 6.5404L67.0727 6.95748C67.9649 7.02814 68.3267 8.12813 67.6469 8.7034L63.6348 12.0987C63.3482 12.3412 63.223 12.7218 63.3106 13.0843L64.5363 18.161C64.744 19.0211 63.7969 19.701 63.033 19.2401L58.5245 16.5196C58.2025 16.3252 57.7975 16.3252 57.4755 16.5196L52.967 19.2401C52.2031 19.701 51.256 19.0211 51.4636 18.161L52.6894 13.0843C52.777 12.7218 52.6518 12.3412 52.3653 12.0987L48.3531 8.7034C47.6733 8.12813 48.0351 7.02814 48.9273 6.95748L54.1934 6.5404C54.5695 6.51061 54.8972 6.27543 55.0421 5.93123L57.0709 1.11234Z" fill="#FFC266"/>
<path d="M81.0709 1.11234C81.4146 0.295885 82.5854 0.295886 82.9291 1.11235L84.9579 5.93123C85.1029 6.27543 85.4306 6.51061 85.8067 6.5404L91.0727 6.95748C91.9649 7.02814 92.3267 8.12813 91.6469 8.7034L87.6348 12.0987C87.3482 12.3412 87.223 12.7218 87.3106 13.0843L88.5363 18.161C88.744 19.0211 87.7969 19.701 87.033 19.2401L82.5245 16.5196C82.2025 16.3252 81.7975 16.3252 81.4755 16.5196L76.967 19.2401C76.2031 19.701 75.256 19.0211 75.4636 18.161L76.6894 13.0843C76.777 12.7218 76.6518 12.3412 76.3653 12.0987L72.3531 8.7034C71.6733 8.12813 72.0351 7.02814 72.9273 6.95748L78.1934 6.5404C78.5695 6.51061 78.8972 6.27543 79.0421 5.93123L81.0709 1.11234Z" fill="#FFC266"/>
<path d="M105.071 1.11234C105.415 0.295885 106.585 0.295886 106.929 1.11235L108.958 5.93123C109.103 6.27543 109.431 6.51061 109.807 6.5404L115.073 6.95748C115.965 7.02814 116.327 8.12813 115.647 8.7034L111.635 12.0987C111.348 12.3412 111.223 12.7218 111.311 13.0843L112.536 18.161C112.744 19.0211 111.797 19.701 111.033 19.2401L106.525 16.5196C106.202 16.3252 105.797 16.3252 105.475 16.5196L100.967 19.2401C100.203 19.701 99.256 19.0211 99.4636 18.161L100.689 13.0843C100.777 12.7218 100.652 12.3412 100.365 12.0987L96.3531 8.7034C95.6733 8.12813 96.0351 7.02814 96.9273 6.95748L102.193 6.5404C102.569 6.51061 102.897 6.27543 103.042 5.93123L105.071 1.11234Z" fill="#FFC266"/>
</g>
</g>
<defs>
<clipPath id="clip0_16_45">
<rect width="116" height="20" fill="white"/>
</clipPath>
</defs>
</svg>
